assets/Postal horn/Flat/postal_horn_flat.svg

<svg width="32" height="32" viewBox="0 0 32 32" fill="none" xmlns="http://www.w3.org/2000/svg">
<path d="M15.2881 25.3401V23.453H14.2881V25.3401H15.2881ZM18.0408 25.3401V23.453H17.0408V25.3401H18.0408Z" fill="#CA0B4A"/>
<path d="M16.0385 20.9948H6.85547V23.5957H16.0385V20.9948Z" fill="#F9C23C"/>
<path d="M27.2292 2L18.5168 2.01947C17.8053 2.0211 17.4881 2.91351 18.039 3.36378L19.3849 4.4647C19.9747 4.94741 20.6448 6.09944 21.087 6.94724C21.4091 7.56382 21.5786 8.24774 21.5802 8.94301V9.4882C20.1256 8.13497 18.1769 7.30583 16.0383 7.30583C11.547 7.30583 7.8938 10.9599 7.8938 15.4504C7.8938 19.9408 11.547 23.5957 16.0375 23.5957C20.528 23.5957 24.182 19.9416 24.182 15.4512L24.1885 8.93003C24.1869 8.23881 24.3516 7.55733 24.668 6.94156C25.0988 6.10431 25.7511 4.9677 26.3441 4.47687L27.7144 3.34106C28.2612 2.88755 27.9399 1.99838 27.2292 2ZM16.0375 20.9947C12.9806 20.9947 10.4932 18.5073 10.4932 15.4504C10.4932 12.3934 12.9806 9.90601 16.0375 9.90601C19.0734 9.90601 21.5454 12.3585 21.5802 15.3863V15.4504H21.5819C21.5819 18.5073 19.0953 20.9947 16.0375 20.9947Z" fill="#FCD53F"/>
<path d="M6 20.1704C6.55206 20.1704 7 20.5858 7 21.0977V23.5819C7 24.0938 6.55206 24.5092 6 24.5092C5.44794 24.51 5 24.0946 5 23.5827V21.0977C5 20.5858 5.44794 20.1704 6 20.1704Z" fill="#FFB02E"/>
<path d="M21.1653 13.3446C21.4252 13.9755 21.572 14.6646 21.5803 15.3863V9.48742C20.1257 8.13419 18.1769 7.30505 16.0384 7.30505C15.7556 7.30505 15.4761 7.31954 15.2007 7.34781C18.0778 8.18556 20.3426 10.461 21.1653 13.3446Z" fill="#F9C23C"/>
<path d="M14.1002 20.6564C14.1002 20.2767 14.4085 19.9684 14.7882 19.9684C15.1687 19.9684 15.477 20.2767 15.4762 20.6564C15.4762 20.2767 15.7852 19.9684 16.1649 19.9684C16.5446 19.9684 16.8529 20.2767 16.8529 20.6564C16.8529 20.2767 17.1612 19.9684 17.5409 19.9684C17.9214 19.9684 18.2288 20.2767 18.2288 20.6564V23.5113C18.2288 23.891 17.9206 24.1992 17.5409 24.1992C17.1612 24.1992 16.8529 23.891 16.8529 23.5113C16.8529 23.891 16.5446 24.1992 16.1649 24.1992C15.7852 24.1992 15.4769 23.891 15.4769 23.5113C15.4769 23.891 15.1679 24.1992 14.7882 24.1992C14.4085 24.1992 14.1002 23.891 14.1002 23.5113V20.6564Z" fill="#F8312F"/>
<path d="M15.5176 25.5046C15.5176 25.7867 15.3583 26.0316 15.1248 26.1543C15.2591 26.2363 15.3628 26.3663 15.4097 26.5252L15.9703 28.4098C16.2064 29.2041 15.6117 30.0008 14.7842 30.0008C13.9567 30.0008 13.362 29.2033 13.5981 28.4098L14.1587 26.5252C14.2057 26.3666 14.3094 26.2366 14.4438 26.1544C14.2102 26.0318 14.0508 25.7868 14.0508 25.5046C14.0508 25.0996 14.3791 24.7712 14.7842 24.7712C15.1892 24.7712 15.5176 25.0996 15.5176 25.5046Z" fill="#F8312F"/>
<path d="M17.8815 26.1543C18.115 26.0316 18.2743 25.7867 18.2743 25.5046C18.2743 25.0996 17.9459 24.7712 17.5409 24.7712C17.1359 24.7712 16.8075 25.0996 16.8075 25.5046C16.8075 25.7868 16.9669 26.0318 17.2005 26.1544C17.0661 26.2366 16.9624 26.3666 16.9154 26.5252L16.3548 28.4098C16.1187 29.2033 16.7134 30.0008 17.5409 30.0008C18.3684 30.0008 18.9631 29.2041 18.727 28.4098L18.1664 26.5252C18.1194 26.3663 18.0158 26.2363 17.8815 26.1543Z" fill="#F8312F"/>
</svg>

<svg xmlns="http://www.w3.org/2000/svg" width="32" height="32" fill="none"><path fill="#CA0B4A" d="M15.288 25.34v-1.887h-1v1.887h1Zm2.753 0v-1.887h-1v1.887h1Z"/><path fill="#F9C23C" d="M16.038 20.995H6.855v2.6h9.183v-2.6Z"/><path fill="#FCD53F" d="m27.23 2-8.713.02c-.712.001-1.029.894-.478 1.344l1.346 1.1c.59.483 1.26 1.635 1.702 2.483.322.617.492 1.3.493 1.996v.545a8.113 8.113 0 0 0-5.542-2.182c-4.491 0-8.144 3.654-8.144 8.144s3.653 8.146 8.144 8.146c4.49 0 8.144-3.654 8.144-8.145l.007-6.521a4.329 4.329 0 0 1 .479-1.988c.43-.838 1.083-1.974 1.676-2.465l1.37-1.136c.547-.453.226-1.343-.485-1.341ZM16.037 20.995a5.55 5.55 0 0 1-5.545-5.545 5.55 5.55 0 0 1 5.545-5.544 5.55 5.55 0 0 1 5.542 5.48v.064h.002a5.55 5.55 0 0 1-5.544 5.545Z"/><path fill="#FFB02E" d="M6 20.17c.552 0 1 .416 1 .928v2.484c0 .512-.448.927-1 .927-.552.001-1-.414-1-.926v-2.485c0-.512.448-.928 1-.928Z"/><path fill="#F9C23C" d="M21.165 13.345c.26.63.407 1.32.415 2.041V9.487a8.114 8.114 0 0 0-6.38-2.14 8.768 8.768 0 0 1 5.965 5.998Z"/><path fill="#F8312F" d="M14.1 20.656a.688.688 0 0 1 1.376 0 .689.689 0 0 1 1.377 0 .688.688 0 0 1 1.376 0v2.855a.688.688 0 0 1-1.376 0 .688.688 0 0 1-1.376 0 .689.689 0 0 1-1.377 0v-2.855ZM15.518 25.505c0 .282-.16.527-.393.65a.65.65 0 0 1 .285.37l.56 1.885a1.238 1.238 0 1 1-2.372 0l.56-1.885a.651.651 0 0 1 .286-.37.733.733 0 1 1 1.074-.65ZM17.881 26.154a.733.733 0 1 0-.68 0 .651.651 0 0 0-.286.371l-.56 1.885a1.238 1.238 0 1 0 2.372 0l-.56-1.885a.65.65 0 0 0-.286-.37Z"/></svg>
